X: 22584
T: Lady Of The House, The
R: reel
M: 4/4
K: Gmajor
GB~B2 cBAB|GBdg e2d2|GB~B2 cBAB|eA~A2 eA~A2|
GB~B2 cBAB|GBdg e2d2|G2BG A2GA|BcAc BG~G2:|
f2fd e2ed|gfge dBGB|f2fd e2ed|eA~A2 eA~A2|
[1 f2fd e2ed|gfge dBGB|G2BG A2GA|BcAc BG~G2:|
[2 gaba gfed|efge dBAB|G2BG A2GA|BcAc BG~G2||

